X:330
T: Drake's Lad [The]
T: Buachaill an Bhardail
S: "Johnny O'Leary of Sliabh Luachra" (#126)
Z: B.Black
L: 1/8
M: 12/8
Q: 360
R: slide
K: D
B|AF/G/A D2E F/A/FF F2B|AFE DFA B/c/BA d2B|
AFA D/E/DE FAF F2A|1 dcd edc B2c d2B :|2\
dcd edc B2c d3 ||
B/c/dB BAF ABc d2e|fed edc dcA BAF|
BcB BAF AB/=c/^c d2e|fed edc B3 B2A|
B/c/dB BAF ABc d2e|f3 efe d z d cBA|
BcB BAF AB/=c/^c d2e|fed edc B2c d2B ||
